**kern	**kern	**dynam
*part1	*part1	*part1
*staff2	*staff1	*
*I"Piano	*	*
*clefF4	*clefG2	*
*k[b-e-a-]	*k[b-e-a-]	*
=1	=1	=1
4BBBn' 4BBn	4G' 4d 4fn	p
8r	8r	.
=	=	=
8r	8r	.
8r	8r	.
8BBBn' 8BBn	8G' 8d 8f	.
=	=	=
4CC' 4C	4G' 4c 4e-	.
8r	8r	.
=	=	=
4AAA-' 4AA-	4A-' 4c 4e-	.
8r	8r	.
=	=	=
4FFF' 4FF	4A-' 4c 4d	.
8r	8r	.
=	=	=
*^	*	*
!	!	!LO:TX:a:i:t=ritard.	!
4F 4G	4GGG' 4GG	4Bn' 4d	.
8r	8ryy	8r	.
=	=	=	=
4E- 4G	4CC' 4C	4c'	.
8r	8ryy	8r	.
*v	*v	*	*
=	=	=
([4.C	([4.G [4.c [4.e-	p
=	=	=
4.C]	4.G] 4.c] 4.e-_	.
=	=	=
4.C-X	4.An 4.e-] 4.f	.
=	=	=
[4.BB-	[4.B- [4.d 4.f	.
=	=	=
*-	*-	*-
!!!system-decoration: {(s1,s2)}
